img/adv-icon4.svg

<svg width="24" height="24" viewBox="0 0 24 24" fill="none" xmlns="http://www.w3.org/2000/svg">
    <g clip-path="url(#clip0_306_844)">
        <path d="M23.7193 5.1748C23.7172 5.13984 23.7104 5.10508 23.6988 5.07207C23.6945 5.05918 23.6912 5.04688 23.6857 5.03438C23.6662 4.99082 23.6391 4.95117 23.6057 4.91719L18.8057 0.117188C18.7717 0.0835938 18.7318 0.0564453 18.6881 0.0371094C18.6762 0.0316406 18.6641 0.0283203 18.6518 0.0240234C18.6178 0.0123047 18.5826 0.00527345 18.5469 0.003125C18.54 0.00449219 18.5328 0 18.5244 0H6.52441C5.42051 0.00136719 4.52578 0.895898 4.52441 2V4.94395C1.77461 6.15664 0 8.87852 0 11.884C0 14.8895 1.77461 17.6113 4.52441 18.824V22C4.52578 23.1041 5.42051 23.9986 6.52441 24H21.7244C22.8285 23.9986 23.7232 23.1041 23.7244 22V5.2C23.7244 5.19121 23.7201 5.18359 23.7193 5.1748ZM22.3588 4.8H19.3244C19.1035 4.8 18.9244 4.6209 18.9244 4.4V1.36563L22.3588 4.8ZM0.808398 11.884C0.806055 10.0797 1.52168 8.34883 2.79746 7.07305C4.07324 5.79727 5.8043 5.08164 7.6084 5.08398C7.83574 5.08398 8.06133 5.09512 8.28398 5.1168C11.377 5.42246 13.8662 7.7916 14.3244 10.8656C14.3775 11.2025 14.4055 11.543 14.408 11.884C14.4109 13.165 14.0488 14.4203 13.3645 15.5031C12.8217 16.3684 12.0902 17.0996 11.2248 17.642C9.1293 18.958 6.48438 19.0318 4.31875 17.8346C2.15313 16.6375 0.808789 14.3584 0.808398 11.884V11.884ZM12.2541 17.8928C12.3088 17.8504 12.3629 17.8084 12.4164 17.7648C12.6139 17.6059 12.8029 17.4369 12.9832 17.2588C13.1613 17.0785 13.3303 16.8896 13.4893 16.6924C13.5328 16.6389 13.5748 16.5844 13.6172 16.5297C13.6656 16.4664 13.7182 16.4064 13.7645 16.342L17.1744 19.7561C17.4002 19.9797 17.5273 20.2844 17.5273 20.6021C17.5273 20.9201 17.4002 21.2246 17.1744 21.4484C16.7021 21.9049 15.9531 21.9049 15.4809 21.4484L12.0664 18.04C12.1309 17.9932 12.1912 17.9412 12.2541 17.8928V17.8928ZM21.7244 23.2H6.52441C5.86172 23.2 5.32441 22.6627 5.32441 22V19.1363C5.34922 19.1443 5.3752 19.1496 5.40039 19.1572C5.46445 19.1768 5.5293 19.1924 5.59414 19.2104C5.74375 19.2504 5.89453 19.2904 6.04688 19.3203C6.12168 19.3359 6.19648 19.3504 6.27207 19.3637C6.42441 19.3904 6.57813 19.4115 6.73242 19.4293C6.80137 19.4371 6.86934 19.4469 6.93848 19.4527C7.16016 19.4717 7.3832 19.484 7.6084 19.484C8.93066 19.485 10.2299 19.1389 11.3762 18.4801L14.9129 22.0133C15.4092 22.5564 16.1639 22.7834 16.8773 22.6037C17.591 22.4242 18.1484 21.8674 18.3285 21.1539C18.5088 20.4404 18.2826 19.6855 17.7396 19.1889L14.2045 15.6516C14.8633 14.5053 15.2096 13.2061 15.2084 11.884C15.2084 11.6307 15.1963 11.3793 15.1717 11.1301C15.001 9.38242 14.2273 7.74883 12.9836 6.50957C11.5611 5.07949 9.62559 4.27813 7.6084 4.28398C7.3832 4.28398 7.16016 4.29648 6.93848 4.31523C6.86934 4.32129 6.80078 4.33086 6.73203 4.33887C6.57813 4.35605 6.4252 4.37793 6.27285 4.40449C6.19688 4.41777 6.12109 4.43223 6.0457 4.44805C5.89531 4.4793 5.74609 4.51602 5.59805 4.55684C5.53164 4.5748 5.46523 4.59082 5.39805 4.61074C5.37324 4.61836 5.34805 4.62363 5.32324 4.63164V2C5.32324 1.3373 5.86055 0.8 6.52324 0.8H18.1244V4.4C18.1244 5.0627 18.6617 5.6 19.3244 5.6H22.9244V22C22.9244 22.6627 22.3873 23.2 21.7244 23.2V23.2Z" fill="#fff"/>
        <path d="M16.5244 2.79999C16.5244 2.5791 16.3453 2.39999 16.1244 2.39999H7.32444C7.10354 2.39999 6.92444 2.5791 6.92444 2.79999C6.92444 3.02089 7.10354 3.19999 7.32444 3.19999H16.1244C16.3453 3.19999 16.5244 3.02089 16.5244 2.79999Z" fill="#fff"/>
        <path d="M20.9244 9.6H16.1244C15.9035 9.6 15.7244 9.7791 15.7244 10C15.7244 10.2209 15.9035 10.4 16.1244 10.4H20.9244C21.1453 10.4 21.3244 10.2209 21.3244 10C21.3244 9.7791 21.1453 9.6 20.9244 9.6Z" fill="#fff"/>
        <path d="M20.9244 12H16.1244C15.9035 12 15.7244 12.1791 15.7244 12.4C15.7244 12.6209 15.9035 12.8 16.1244 12.8H20.9244C21.1453 12.8 21.3244 12.6209 21.3244 12.4C21.3244 12.1791 21.1453 12 20.9244 12Z" fill="#ffff"/>
        <path d="M21.3244 14.8C21.3244 14.5791 21.1453 14.4 20.9244 14.4H15.7244C15.5035 14.4 15.3244 14.5791 15.3244 14.8C15.3244 15.0209 15.5035 15.2 15.7244 15.2H20.9244C21.1453 15.2 21.3244 15.0209 21.3244 14.8Z" fill="#fff"/>
        <path d="M21.3244 17.2C21.3244 16.9791 21.1453 16.8 20.9244 16.8H17.3244C17.1035 16.8 16.9244 16.9791 16.9244 17.2C16.9244 17.4209 17.1035 17.6 17.3244 17.6H20.9244C21.1453 17.6 21.3244 17.4209 21.3244 17.2Z" fill="#fff"/>
        <path d="M16.5244 5.2C16.5244 4.9791 16.3453 4.8 16.1244 4.8H12.9244C12.7035 4.8 12.5244 4.9791 12.5244 5.2C12.5244 5.4209 12.7035 5.6 12.9244 5.6H16.1244C16.3453 5.6 16.5244 5.4209 16.5244 5.2Z" fill="#fff"/>
        <path d="M21.3244 7.6C21.3244 7.3791 21.1453 7.2 20.9244 7.2H14.9244C14.7035 7.2 14.5244 7.3791 14.5244 7.6C14.5244 7.8209 14.7035 8 14.9244 8H20.9244C21.1453 8 21.3244 7.8209 21.3244 7.6Z" fill="#fff"/>
        <path d="M6.12443 10H8.92443C9.14532 10 9.32443 9.8209 9.32443 9.6C9.32443 9.3791 9.14532 9.2 8.92443 9.2H6.12443C5.90353 9.2 5.72443 9.3791 5.72443 9.6C5.72443 9.8209 5.90353 10 6.12443 10Z" fill="#fff"/>
        <path d="M10.9244 12C10.9244 11.7791 10.7453 11.6 10.5244 11.6H4.52439C4.30349 11.6 4.12439 11.7791 4.12439 12C4.12439 12.2209 4.30349 12.4 4.52439 12.4H10.5244C10.7453 12.4 10.9244 12.2209 10.9244 12Z" fill="#fff"/>
        <path d="M8.92443 14H6.12443C5.90353 14 5.72443 14.1791 5.72443 14.4C5.72443 14.6209 5.90353 14.8 6.12443 14.8H8.92443C9.14532 14.8 9.32443 14.6209 9.32443 14.4C9.32443 14.1791 9.14532 14 8.92443 14Z" fill="#fff"/>
        <path d="M10.4557 17.16C11.4313 16.6404 12.2402 15.8557 12.7893 14.8965C12.8209 14.8412 12.8553 14.7877 12.885 14.7316C12.9004 14.7027 12.9125 14.6729 12.9273 14.6439C12.9881 14.5271 13.0473 14.4104 13.0996 14.2908C13.1522 14.1713 13.1934 14.0576 13.2361 13.94C13.2484 13.9061 13.2641 13.8729 13.2762 13.8385C14.2934 10.8805 12.8676 7.63711 10.0004 6.38691C7.13301 5.13672 3.78633 6.29922 2.31133 9.05762C1.84707 9.92656 1.60528 10.8971 1.60762 11.8824C1.60391 13.9965 2.71426 15.9561 4.52969 17.0393C6.34512 18.1227 8.59688 18.1693 10.4557 17.1623V17.16ZM5.11563 16.4473C4.68028 16.21 4.28145 15.9111 3.93125 15.56C3.68829 15.3172 3.46973 15.0514 3.27852 14.766C3.18399 14.6246 3.09707 14.4795 3.01719 14.3305C1.81329 12.0572 2.45118 9.24531 4.51817 7.71426C6.58516 6.1832 9.46094 6.39258 11.2846 8.20684C12.8996 9.83711 13.2629 12.3301 12.1805 14.3535V14.3568C11.7035 15.2492 10.9723 15.9799 10.0797 16.4564C8.53125 17.2977 6.66153 17.2947 5.11563 16.4488V16.4473Z" fill="#fff"/>
        <path d="M21.7244 19.2C21.5035 19.2 21.3244 19.3791 21.3244 19.6V21.2C21.3244 21.4209 21.1453 21.6 20.9244 21.6H19.3244C19.1035 21.6 18.9244 21.7791 18.9244 22C18.9244 22.2209 19.1035 22.4 19.3244 22.4H20.9244C21.5873 22.4 22.1244 21.8627 22.1244 21.2V19.6C22.1244 19.3791 21.9453 19.2 21.7244 19.2Z" fill="#ffff"/>
    </g>
    <defs>
        <clipPath id="clip0_306_844">
            <rect width="24" height="24" fill="white"/>
        </clipPath>
    </defs>
</svg>

<svg width="24" height="24" fill="none" xmlns="http://www.w3.org/2000/svg"><g clip-path="url(#clip0_306_844)"><path d="M23.72 5.175a.379.379 0 00-.021-.103l-.013-.038a.4.4 0 00-.08-.117l-4.8-4.8a.395.395 0 00-.118-.08l-.036-.013a.394.394 0 00-.105-.02c-.007 0-.014-.004-.023-.004h-12a2.002 2.002 0 00-2 2v2.944a7.585 7.585 0 000 13.88V22a2.003 2.003 0 002 2h15.2a2.002 2.002 0 002-2V5.2c0-.009-.004-.016-.005-.025zM22.358 4.8h-3.035a.4.4 0 01-.4-.4V1.366L22.36 4.8zM.809 11.884a6.791 6.791 0 017.475-6.767 6.781 6.781 0 016.04 5.749c.053.337.082.677.084 1.018a6.746 6.746 0 01-1.043 3.62 6.8 6.8 0 01-12.556-3.62zm11.445 6.009a7.47 7.47 0 00.73-.634c.177-.18.346-.37.505-.567.044-.053.086-.108.128-.162.049-.064.101-.124.147-.188l3.41 3.414a1.19 1.19 0 010 1.692 1.218 1.218 0 01-1.693 0l-3.415-3.408c.065-.047.125-.099.188-.147zm9.47 5.307h-15.2a1.2 1.2 0 01-1.2-1.2v-2.864c.025.008.051.014.076.021.064.02.13.035.194.053a6.918 6.918 0 001.138.22c.07.007.137.017.206.023a7.55 7.55 0 004.438-.973l3.537 3.533a2 2 0 102.827-2.824l-3.535-3.537a7.547 7.547 0 00.967-4.522 7.56 7.56 0 00-2.188-4.62 7.55 7.55 0 00-6.046-2.195c-.069.006-.137.016-.206.024a7.547 7.547 0 00-1.134.218c-.066.018-.133.034-.2.054l-.075.02V2a1.2 1.2 0 011.2-1.2h11.601v3.6a1.2 1.2 0 001.2 1.2h3.6V22a1.2 1.2 0 01-1.2 1.2z" fill="#fff"/><path d="M16.524 2.8a.4.4 0 00-.4-.4h-8.8a.4.4 0 000 .8h8.8a.4.4 0 00.4-.4zm4.4 6.8h-4.8a.4.4 0 000 .8h4.8a.4.4 0 000-.8z" fill="#fff"/><path d="M20.924 12h-4.8a.4.4 0 000 .8h4.8a.4.4 0 000-.8z" fill="#ffff"/><path d="M21.324 14.8a.4.4 0 00-.4-.4h-5.2a.4.4 0 000 .8h5.2a.4.4 0 00.4-.4zm0 2.4a.4.4 0 00-.4-.4h-3.6a.4.4 0 000 .8h3.6a.4.4 0 00.4-.4zm-4.8-12a.4.4 0 00-.4-.4h-3.2a.4.4 0 000 .8h3.2a.4.4 0 00.4-.4zm4.8 2.4a.4.4 0 00-.4-.4h-6a.4.4 0 000 .8h6a.4.4 0 00.4-.4zM6.124 10h2.8a.4.4 0 000-.8h-2.8a.4.4 0 000 .8zm4.8 2a.4.4 0 00-.4-.4h-6a.4.4 0 000 .8h6a.4.4 0 00.4-.4zm-2 2h-2.8a.4.4 0 000 .8h2.8a.4.4 0 000-.8z" fill="#fff"/><path d="M10.456 17.16a5.867 5.867 0 002.333-2.264c.032-.055.066-.108.096-.164.015-.03.027-.06.042-.088a6.39 6.39 0 00.173-.353c.052-.12.093-.233.136-.351.012-.034.028-.067.04-.101A6 6 0 002.311 9.058a5.964 5.964 0 00-.703 2.824 5.993 5.993 0 008.848 5.28v-.002zm-5.34-.713a5.267 5.267 0 01-2.098-2.117 5.203 5.203 0 018.267-6.123 5.23 5.23 0 01.896 6.146v.004a5.112 5.112 0 01-2.101 2.1 5.185 5.185 0 01-4.964-.008v-.002z" fill="#fff"/><path d="M21.724 19.2a.4.4 0 00-.4.4v1.6a.4.4 0 01-.4.4h-1.6a.4.4 0 000 .8h1.6a1.2 1.2 0 001.2-1.2v-1.6a.4.4 0 00-.4-.4z" fill="#ffff"/></g><defs><clipPath id="clip0_306_844"><path fill="#fff" d="M0 0h24v24H0z"/></clipPath></defs></svg>
